img/actions/icon-3.svg

<svg width="58" height="58" viewBox="0 0 58 58" fill="none" xmlns="http://www.w3.org/2000/svg">
<g filter="url(#filter0_b_1971_17008)">
<rect x="1" y="1" width="56" height="56" rx="16" fill="url(#paint0_radial_1971_17008)" fill-opacity="0.2"/>
<rect x="1" y="1" width="56" height="56" rx="16" stroke="url(#paint1_linear_1971_17008)"/>
</g>
<path d="M30.915 29.4948C28.3939 26.9737 27.1333 25.7131 27.1333 24.1467C27.1333 22.5803 28.3939 21.3197 30.915 18.7986L31.1185 18.5951C33.6396 16.0739 34.9002 14.8134 36.4666 14.8134C38.0331 14.8134 39.2936 16.0739 41.8148 18.5951L42.0183 18.7986C44.5394 21.3197 45.8 22.5803 45.8 24.1467C45.8 25.7131 44.5394 26.9737 42.0183 29.4948L41.8148 29.6983C39.2936 32.2195 38.0331 33.48 36.4666 33.48C34.9002 33.48 33.6396 32.2195 31.1185 29.6983L30.915 29.4948Z" fill="url(#paint2_linear_1971_17008)"/>
<g filter="url(#filter1_b_1971_17008)">
<path fill-rule="evenodd" clip-rule="evenodd" d="M26.7784 18.3358C27.0148 18.3241 27.2516 18.3241 27.4881 18.3358C28.4007 18.3811 29.2409 18.6463 30.1775 19.081C31.0893 19.5041 32.1489 20.1158 33.4893 20.8897L33.5653 20.9336C34.9058 21.7075 35.9654 22.3193 36.7877 22.8974C37.6325 23.4912 38.2822 24.0863 38.7778 24.854C38.9062 25.0528 39.0246 25.2579 39.1326 25.4685C39.5497 26.2815 39.7401 27.1418 39.832 28.1703C39.9215 29.1715 39.9215 30.3949 39.9215 31.9428V32.0305C39.9215 33.5783 39.9215 34.8018 39.832 35.8031C39.7401 36.8316 39.5497 37.6918 39.1326 38.5048C39.0246 38.7154 38.9062 38.9205 38.7778 39.1194C38.2822 39.8871 37.6325 40.4821 36.7877 41.076C35.9654 41.6541 34.9058 42.2658 33.5653 43.0397L33.4894 43.0835C32.1489 43.8575 31.0894 44.4692 30.1775 44.8924C29.2409 45.327 28.4007 45.5922 27.4881 45.6375C27.2517 45.6492 27.0148 45.6492 26.7784 45.6375C25.8658 45.5922 25.0256 45.327 24.0889 44.8924C23.1771 44.4692 22.1176 43.8575 20.7771 43.0836L20.7011 43.0397C19.3607 42.2658 18.301 41.654 17.4787 41.076C16.634 40.4821 15.9842 39.8871 15.4887 39.1194C15.3603 38.9205 15.2419 38.7154 15.1338 38.5048C14.7168 37.6918 14.5263 36.8316 14.4344 35.8031C14.345 34.8018 14.345 33.5784 14.345 32.0305V31.9428C14.345 30.395 14.345 29.1715 14.4344 28.1703C14.5263 27.1418 14.7168 26.2816 15.1338 25.4685C15.2419 25.2579 15.3603 25.0528 15.4887 24.854C15.9842 24.0863 16.634 23.4912 17.4787 22.8974C18.3011 22.3193 19.3607 21.7075 20.7011 20.9336L20.777 20.8898C22.1175 20.1159 23.1771 19.5041 24.0889 19.081C25.0256 18.6463 25.8658 18.3811 26.7784 18.3358Z" fill="#28D03B" fill-opacity="0.35"/>
<path fill-rule="evenodd" clip-rule="evenodd" d="M26.7784 18.3358C27.0148 18.3241 27.2516 18.3241 27.4881 18.3358C28.4007 18.3811 29.2409 18.6463 30.1775 19.081C31.0893 19.5041 32.1489 20.1158 33.4893 20.8897L33.5653 20.9336C34.9058 21.7075 35.9654 22.3193 36.7877 22.8974C37.6325 23.4912 38.2822 24.0863 38.7778 24.854C38.9062 25.0528 39.0246 25.2579 39.1326 25.4685C39.5497 26.2815 39.7401 27.1418 39.832 28.1703C39.9215 29.1715 39.9215 30.3949 39.9215 31.9428V32.0305C39.9215 33.5783 39.9215 34.8018 39.832 35.8031C39.7401 36.8316 39.5497 37.6918 39.1326 38.5048C39.0246 38.7154 38.9062 38.9205 38.7778 39.1194C38.2822 39.8871 37.6325 40.4821 36.7877 41.076C35.9654 41.6541 34.9058 42.2658 33.5653 43.0397L33.4894 43.0835C32.1489 43.8575 31.0894 44.4692 30.1775 44.8924C29.2409 45.327 28.4007 45.5922 27.4881 45.6375C27.2517 45.6492 27.0148 45.6492 26.7784 45.6375C25.8658 45.5922 25.0256 45.327 24.0889 44.8924C23.1771 44.4692 22.1176 43.8575 20.7771 43.0836L20.7011 43.0397C19.3607 42.2658 18.301 41.654 17.4787 41.076C16.634 40.4821 15.9842 39.8871 15.4887 39.1194C15.3603 38.9205 15.2419 38.7154 15.1338 38.5048C14.7168 37.6918 14.5263 36.8316 14.4344 35.8031C14.345 34.8018 14.345 33.5784 14.345 32.0305V31.9428C14.345 30.395 14.345 29.1715 14.4344 28.1703C14.5263 27.1418 14.7168 26.2816 15.1338 25.4685C15.2419 25.2579 15.3603 25.0528 15.4887 24.854C15.9842 24.0863 16.634 23.4912 17.4787 22.8974C18.3011 22.3193 19.3607 21.7075 20.7011 20.9336L20.777 20.8898C22.1175 20.1159 23.1771 19.5041 24.0889 19.081C25.0256 18.6463 25.8658 18.3811 26.7784 18.3358Z" stroke="url(#paint3_linear_1971_17008)" stroke-width="0.373333"/>
</g>
<g filter="url(#filter2_d_1971_17008)">
<path fill-rule="evenodd" clip-rule="evenodd" d="M34.1935 28.8421C34.4205 28.3794 34.2294 27.8202 33.7666 27.5932C33.3038 27.3661 32.7446 27.5573 32.5176 28.0201L30.7003 31.7248C30.137 32.8732 28.4814 32.8171 27.9971 31.6333C26.9031 28.9589 23.163 28.8322 21.8904 31.4264L20.0731 35.1312C19.8461 35.594 20.0373 36.1532 20.5 36.3802C20.9628 36.6072 21.522 36.416 21.749 35.9533L23.5663 32.2485C24.1296 31.1002 25.7852 31.1562 26.2695 32.34C27.3635 35.0144 31.1036 35.1411 32.3762 32.5469L34.1935 28.8421Z" fill="url(#paint4_linear_1971_17008)"/>
</g>
<defs>
<filter id="filter0_b_1971_17008" x="-8.46" y="-8.46" width="74.92" height="74.92" filterUnits="userSpaceOnUse" color-interpolation-filters="sRGB">
<feFlood flood-opacity="0" result="BackgroundImageFix"/>
<feGaussianBlur in="BackgroundImageFix" stdDeviation="4.48"/>
<feComposite in2="SourceAlpha" operator="in" result="effect1_backgroundBlur_1971_17008"/>
<feBlend mode="normal" in="SourceGraphic" in2="effect1_backgroundBlur_1971_17008" result="shape"/>
</filter>
<filter id="filter1_b_1971_17008" x="5.1982" y="9.18038" width="43.87" height="45.6126" filterUnits="userSpaceOnUse" color-interpolation-filters="sRGB">
<feFlood flood-opacity="0" result="BackgroundImageFix"/>
<feGaussianBlur in="BackgroundImageFix" stdDeviation="4.48"/>
<feComposite in2="SourceAlpha" operator="in" result="effect1_backgroundBlur_1971_17008"/>
<feBlend mode="normal" in="SourceGraphic" in2="effect1_backgroundBlur_1971_17008" result="shape"/>
</filter>
<filter id="filter2_d_1971_17008" x="18.762" y="26.282" width="19.1736" height="13.8402" filterUnits="userSpaceOnUse" color-interpolation-filters="sRGB">
<feFlood flood-opacity="0" result="BackgroundImageFix"/>
<feColorMatrix in="SourceAlpha" type="matrix" values="0 0 0 0 0 0 0 0 0 0 0 0 0 0 0 0 0 0 127 0" result="hardAlpha"/>
<feOffset dx="1.21551" dy="1.21551"/>
<feGaussianBlur stdDeviation="1.21551"/>
<feColorMatrix type="matrix" values="0 0 0 0 0.788235 0 0 0 0 0.152941 0 0 0 0 0.666667 0 0 0 0.5 0"/>
<feBlend mode="normal" in2="BackgroundImageFix" result="effect1_dropShadow_1971_17008"/>
<feBlend mode="normal" in="SourceGraphic" in2="effect1_dropShadow_1971_17008" result="shape"/>
</filter>
<radialGradient id="paint0_radial_1971_17008" cx="0" cy="0" r="1" gradientUnits="userSpaceOnUse" gradientTransform="translate(1 1) rotate(45) scale(79.196)">
<stop stop-color="#FAFAFA"/>
<stop offset="1" stop-color="#F7F7F7" stop-opacity="0"/>
</radialGradient>
<linearGradient id="paint1_linear_1971_17008" x1="29" y1="1" x2="29" y2="57" gradientUnits="userSpaceOnUse">
<stop stop-color="white"/>
<stop offset="1" stop-color="white" stop-opacity="0"/>
</linearGradient>
<linearGradient id="paint2_linear_1971_17008" x1="27.1333" y1="33.48" x2="46.1977" y2="15.2288" gradientUnits="userSpaceOnUse">
<stop stop-color="#209440"/>
<stop offset="1" stop-color="#2EFF36"/>
</linearGradient>
<linearGradient id="paint3_linear_1971_17008" x1="14.345" y1="18.327" x2="41.617" y2="43.8334" gradientUnits="userSpaceOnUse">
<stop stop-color="white" stop-opacity="0.25"/>
<stop offset="1" stop-color="white" stop-opacity="0"/>
</linearGradient>
<linearGradient id="paint4_linear_1971_17008" x1="27.2538" y1="38.3885" x2="38.508" y2="20.8033" gradientUnits="userSpaceOnUse">
<stop stop-color="white"/>
<stop offset="1" stop-color="white" stop-opacity="0.2"/>
</linearGradient>
</defs>
</svg>

<svg width="58" height="58" viewBox="0 0 58 58" fill="none" xmlns="http://www.w3.org/2000/svg"><g filter="url(#filter0_b_1971_17008)"><rect x="1" y="1" width="56" height="56" rx="16" fill="url(#paint0_radial_1971_17008)" fill-opacity=".2"/><rect x="1" y="1" width="56" height="56" rx="16" stroke="url(#paint1_linear_1971_17008)"/></g><path d="M30.915 29.495c-2.521-2.521-3.782-3.782-3.782-5.348 0-1.567 1.26-2.827 3.782-5.348l.204-.204c2.52-2.521 3.781-3.782 5.348-3.782 1.566 0 2.827 1.26 5.348 3.782l.203.204c2.521 2.52 3.782 3.781 3.782 5.348 0 1.566-1.26 2.827-3.782 5.348l-.203.203c-2.521 2.521-3.782 3.782-5.348 3.782-1.567 0-2.827-1.26-5.348-3.782l-.204-.203z" fill="url(#paint2_linear_1971_17008)"/><g filter="url(#filter1_b_1971_17008)" fill-rule="evenodd" clip-rule="evenodd"><path d="M26.778 18.336a7.18 7.18 0 01.71 0c.913.045 1.753.31 2.69.745.911.423 1.97 1.035 3.311 1.809l.076.044c1.34.773 2.4 1.385 3.223 1.963.845.594 1.494 1.19 1.99 1.957.128.199.247.404.355.614.417.814.607 1.674.699 2.702.09 1.002.09 2.225.09 3.773v.088c0 1.547 0 2.77-.09 3.772-.092 1.029-.282 1.889-.7 2.702-.107.21-.226.415-.354.614-.496.768-1.145 1.363-1.99 1.957-.823.578-1.882 1.19-3.223 1.964l-.076.044c-1.34.773-2.4 1.385-3.311 1.808-.937.435-1.777.7-2.69.745a7.18 7.18 0 01-.71 0c-.912-.045-1.752-.31-2.69-.745-.91-.423-1.97-1.035-3.31-1.808l-.077-.044c-1.34-.774-2.4-1.386-3.222-1.964-.845-.594-1.495-1.189-1.99-1.957a7.17 7.17 0 01-.355-.614c-.417-.813-.608-1.673-.7-2.702-.089-1.001-.089-2.225-.089-3.772v-.088c0-1.548 0-2.771.09-3.773.091-1.028.282-1.888.699-2.702.108-.21.226-.415.355-.614.495-.768 1.145-1.363 1.99-1.957.822-.578 1.882-1.19 3.222-1.963l.076-.044c1.34-.774 2.4-1.386 3.312-1.809.937-.435 1.777-.7 2.69-.745z" fill="#28D03B" fill-opacity=".35"/><path d="M26.778 18.336a7.18 7.18 0 01.71 0c.913.045 1.753.31 2.69.745.911.423 1.97 1.035 3.311 1.809l.076.044c1.34.773 2.4 1.385 3.223 1.963.845.594 1.494 1.19 1.99 1.957.128.199.247.404.355.614.417.814.607 1.674.699 2.702.09 1.002.09 2.225.09 3.773v.088c0 1.547 0 2.77-.09 3.772-.092 1.029-.282 1.889-.7 2.702-.107.21-.226.415-.354.614-.496.768-1.145 1.363-1.99 1.957-.823.578-1.882 1.19-3.223 1.964l-.076.044c-1.34.773-2.4 1.385-3.311 1.808-.937.435-1.777.7-2.69.745a7.18 7.18 0 01-.71 0c-.912-.045-1.752-.31-2.69-.745-.91-.423-1.97-1.035-3.31-1.808l-.077-.044c-1.34-.774-2.4-1.386-3.222-1.964-.845-.594-1.495-1.189-1.99-1.957a7.17 7.17 0 01-.355-.614c-.417-.813-.608-1.673-.7-2.702-.089-1.001-.089-2.225-.089-3.772v-.088c0-1.548 0-2.771.09-3.773.091-1.028.282-1.888.699-2.702.108-.21.226-.415.355-.614.495-.768 1.145-1.363 1.99-1.957.822-.578 1.882-1.19 3.222-1.963l.076-.044c1.34-.774 2.4-1.386 3.312-1.809.937-.435 1.777-.7 2.69-.745z" stroke="url(#paint3_linear_1971_17008)" stroke-width=".373"/></g><g filter="url(#filter2_d_1971_17008)"><path fill-rule="evenodd" clip-rule="evenodd" d="M34.194 28.842a.933.933 0 10-1.676-.822L30.7 31.725c-.563 1.148-2.219 1.092-2.703-.092-1.094-2.674-4.834-2.8-6.107-.207l-1.817 3.705a.933.933 0 001.676.822l1.817-3.705c.564-1.148 2.22-1.092 2.704.092 1.093 2.674 4.834 2.801 6.106.207l1.818-3.705z" fill="url(#paint4_linear_1971_17008)"/></g><defs><linearGradient id="paint1_linear_1971_17008" x1="29" y1="1" x2="29" y2="57" gradientUnits="userSpaceOnUse"><stop stop-color="#fff"/><stop offset="1" stop-color="#fff" stop-opacity="0"/></linearGradient><linearGradient id="paint2_linear_1971_17008" x1="27.133" y1="33.48" x2="46.198" y2="15.229" gradientUnits="userSpaceOnUse"><stop stop-color="#209440"/><stop offset="1" stop-color="#2EFF36"/></linearGradient><linearGradient id="paint3_linear_1971_17008" x1="14.345" y1="18.327" x2="41.617" y2="43.833" gradientUnits="userSpaceOnUse"><stop stop-color="#fff" stop-opacity=".25"/><stop offset="1" stop-color="#fff" stop-opacity="0"/></linearGradient><linearGradient id="paint4_linear_1971_17008" x1="27.254" y1="38.389" x2="38.508" y2="20.803" gradientUnits="userSpaceOnUse"><stop stop-color="#fff"/><stop offset="1" stop-color="#fff" stop-opacity=".2"/></linearGradient><filter id="filter0_b_1971_17008" x="-8.46" y="-8.46" width="74.92" height="74.92" filterUnits="userSpaceOnUse" color-interpolation-filters="sRGB"><feFlood flood-opacity="0" result="BackgroundImageFix"/><feGaussianBlur in="BackgroundImageFix" stdDeviation="4.48"/><feComposite in2="SourceAlpha" operator="in" result="effect1_backgroundBlur_1971_17008"/><feBlend in="SourceGraphic" in2="effect1_backgroundBlur_1971_17008" result="shape"/></filter><filter id="filter1_b_1971_17008" x="5.198" y="9.18" width="43.87" height="45.613" filterUnits="userSpaceOnUse" color-interpolation-filters="sRGB"><feFlood flood-opacity="0" result="BackgroundImageFix"/><feGaussianBlur in="BackgroundImageFix" stdDeviation="4.48"/><feComposite in2="SourceAlpha" operator="in" result="effect1_backgroundBlur_1971_17008"/><feBlend in="SourceGraphic" in2="effect1_backgroundBlur_1971_17008" result="shape"/></filter><filter id="filter2_d_1971_17008" x="18.762" y="26.282" width="19.174" height="13.84" filterUnits="userSpaceOnUse" color-interpolation-filters="sRGB"><feFlood flood-opacity="0" result="BackgroundImageFix"/><feColorMatrix in="SourceAlpha" values="0 0 0 0 0 0 0 0 0 0 0 0 0 0 0 0 0 0 127 0" result="hardAlpha"/><feOffset dx="1.216" dy="1.216"/><feGaussianBlur stdDeviation="1.216"/><feColorMatrix values="0 0 0 0 0.788235 0 0 0 0 0.152941 0 0 0 0 0.666667 0 0 0 0.5 0"/><feBlend in2="BackgroundImageFix" result="effect1_dropShadow_1971_17008"/><feBlend in="SourceGraphic" in2="effect1_dropShadow_1971_17008" result="shape"/></filter><radialGradient id="paint0_radial_1971_17008" cx="0" cy="0" r="1" gradientUnits="userSpaceOnUse" gradientTransform="rotate(45 -.707 1.707) scale(79.196)"><stop stop-color="#FAFAFA"/><stop offset="1" stop-color="#F7F7F7" stop-opacity="0"/></radialGradient></defs></svg>flood-opacity="0" result="BackgroundImageFix"/>
<feColorMatrix in="SourceAlpha" type="matrix" values="0 0 0 0 0 0 0 0 0 0 0 0 0 0 0 0 0 0 127 0" result="hardAlpha"/>
<feOffset dx="1.21551" dy="1.21551"/>
<feGaussianBlur stdDeviation="1.21551"/>
<feColorMatrix type="matrix" values="0 0 0 0 0.788235 0 0 0 0 0.152941 0 0 0 0 0.666667 0 0 0 0.5 0"/>
<feBlend mode="normal" in2="BackgroundImageFix" result="effect1_dropShadow_1971_17008"/>
<feBlend mode="normal" in="SourceGraphic" in2="effect1_dropShadow_1971_17008" result="shape"/>
</filter>
<radialGradient id="paint0_radial_1971_17008" cx="0" cy="0" r="1" gradientUnits="userSpaceOnUse" gradientTransform="translate(1 1) rotate(45) scale(79.196)">
<stop stop-color="#FAFAFA"/>
<stop offset="1" stop-color="#F7F7F7" stop-opacity="0"/>
</radialGradient>
<linearGradient id="paint1_linear_1971_17008" x1="29" y1="1" x2="29" y2="57" gradientUnits="userSpaceOnUse">
<stop stop-color="white"/>
<stop offset="1" stop-color="white" stop-opacity="0"/>
</linearGradient>
<linearGradient id="paint2_linear_1971_17008" x1="27.1333" y1="33.48" x2="46.1977" y2="15.2288" gradientUnits="userSpaceOnUse">
<stop stop-color="#209440"/>
<stop offset="1" stop-color="#2EFF36"/>
</linearGradient>
<linearGradient id="paint3_linear_1971_17008" x1="14.345" y1="18.327" x2="41.617" y2="43.8334" gradientUnits="userSpaceOnUse">
<stop stop-color="white" stop-opacity="0.25"/>
<stop offset="1" stop-color="white" stop-opacity="0"/>
</linearGradient>
<linearGradient id="paint4_linear_1971_17008" x1="27.2538" y1="38.3885" x2="38.508" y2="20.8033" gradientUnits="userSpaceOnUse">
<stop stop-color="white"/>
<stop offset="1" stop-color="white" stop-opacity="0.2"/>
</linearGradient>
</defs>
</svg>
